src/assets/img/aetm-logo-header-mobile.svg

<?xml version="1.0" encoding="UTF-8"?>
<svg width="262px" height="149px" viewBox="0 0 262 149" version="1.1" xmlns="http://www.w3.org/2000/svg" xmlns:xlink="http://www.w3.org/1999/xlink">
    <!-- Generator: sketchtool 41 (35326) - http://www.bohemiancoding.com/sketch -->
    <title>D2257672-7E52-45B6-AFF0-9509F4D4CE55</title>
    <desc>Created with sketchtool.</desc>
    <defs>
        <polygon id="path-1" points="0.104962475 47 44.9887686 47 44.9887686 0.0230272515 0.104962475 0.0230272515 0.104962475 47"></polygon>
        <polygon id="path-3" points="0.0790539835 46.9082628 45.8367174 46.9082628 45.8367174 0.0231084916 0.0790539835 0.0231084916"></polygon>
        <polygon id="path-5" points="0 149 262 149 262 0 0 0"></polygon>
    </defs>
    <g id="Page-1" stroke="none" stroke-width="1" fill="none" fill-rule="evenodd">
        <g id="aetm-mobile1" transform="translate(-28.000000, -101.000000)">
            <g id="Page-1" transform="translate(28.000000, 101.000000)">
                <g id="Group-3" transform="translate(73.000000, 102.000000)">
                    <mask id="mask-2" fill="white">
                        <use xlink:href="#path-1"></use>
                    </mask>
                    <g id="Clip-2"></g>
                    <path d="M36.9567963,23.418143 C36.9567963,14.8333594 31.7604572,7.57106234 22.593725,7.57106234 C13.8069348,7.57106234 8.61059571,15.2126577 8.61059571,23.418143 C8.61059571,31.7197173 13.6182303,39.4548729 22.593725,39.4548729 C31.8541762,39.4548729 36.9567963,32.0964869 36.9567963,23.418143 L36.9567963,23.418143 Z M44.9887686,45.4920366 L36.4856683,45.4920366 L36.4856683,38.6077735 L36.2956973,38.6077735 C32.8939506,43.6043957 27.6013596,47.0003793 21.2702607,47.0003793 C7.7595258,47.0003793 0.104962475,35.7756799 0.104962475,23.1374623 C0.104962475,11.0631349 8.13693478,0.0230272515 20.9865707,0.0230272515 C27.5076406,0.0230272515 32.8002316,3.41901088 36.2956973,8.70263544 L36.4856683,8.70263544 L36.4856683,1.34424947 L44.9887686,1.34424947 L44.9887686,45.4920366 Z" id="Fill-1" fill="#F46F7C" mask="url(#mask-2)"></path>
                </g>
                <path d="M136.347061,109.349665 L136.531004,109.349665 C139.127343,104.57865 144.321263,102 149.607155,102 C161.846859,102 165,110.497011 165,121.375692 L165,148 L156.652939,148 L156.652939,122.421989 C156.652939,114.789645 155.633792,109.636182 147.101545,109.636182 C136.347061,109.636182 136.347061,119.371354 136.347061,127.483358 L136.347061,148 L128,148 L128,103.336652 L136.347061,103.336652 L136.347061,109.349665 Z" id="Fill-4" fill="#F46F7C"></path>
                <g id="Group-8" transform="translate(171.000000, 102.000000)">
                    <mask id="mask-4" fill="white">
                        <use xlink:href="#path-3"></use>
                    </mask>
                    <g id="Clip-7"></g>
                    <path d="M8.31477102,23.465938 C8.31477102,31.7513088 14.8123273,38.8126757 22.9572724,38.8126757 C31.1034441,38.8126757 37.6010004,31.7513088 37.6010004,23.465938 C37.6010004,15.0897133 31.1034441,8.11920034 22.9572724,8.11920034 C14.8123273,8.11920034 8.31477102,15.0897133 8.31477102,23.465938 M45.8367174,23.465938 C45.8367174,36.741964 35.7696144,46.9087676 22.9572724,46.9087676 C10.146157,46.9087676 0.0790539835,36.741964 0.0790539835,23.465938 C0.0790539835,10.1924358 10.146157,0.0231084916 22.9572724,0.0231084916 C35.7696144,0.0231084916 45.8367174,10.1924358 45.8367174,23.465938" id="Fill-6" fill="#F46F7C" mask="url(#mask-4)"></path>
                </g>
                <path d="M233.347061,109.349665 L233.531004,109.349665 C236.127343,104.57865 241.321263,102 246.607155,102 C258.846859,102 262,110.497011 262,121.375692 L262,148 L253.652939,148 L253.652939,122.421989 C253.652939,114.789645 252.633792,109.636182 244.101545,109.636182 C233.347061,109.636182 233.347061,119.371354 233.347061,127.483358 L233.347061,148 L225,148 L225,103.336652 L233.347061,103.336652 L233.347061,109.349665 Z" id="Fill-9" fill="#F46F7C"></path>
                <mask id="mask-6" fill="white">
                    <use xlink:href="#path-5"></use>
                </mask>
                <g id="Clip-12"></g>
                <polygon id="Fill-11" fill="#259CC2" mask="url(#mask-6)" points="56 83 64 83 64 0 56 0"></polygon>
                <path d="M105.544841,53.406594 C104.510929,46.7996501 100.1889,42.3608666 93.4225061,42.3608666 C86.8475308,42.3608666 81.9600612,47.0804737 80.9274085,53.406594 L105.544841,53.406594 Z M80.4589368,59.8212623 C80.5521274,67.3731396 85.6247189,74.4506527 93.7045966,74.4506527 C100.1889,74.4506527 103.664658,71.1478132 106.860844,65.8614991 L114,69.9195263 C109.866871,77.5675414 102.162274,82 93.611406,82 C80.1755869,82 72,71.8081281 72,58.7865159 C72,45.1944018 79.2361249,35 93.4225061,35 C107.422506,35 114,45.3841475 114,58.4993675 L114,59.8212623 L80.4589368,59.8212623 Z" id="Fill-13" fill="#259CC2" mask="url(#mask-6)"></path>
                <polygon id="Fill-14" fill="#259CC2" mask="url(#mask-6)" points="116.966608 36 127.216271 36 137.953334 50.1974913 149.656124 36 160.196153 36 143.562325 56.118678 163 80 152.846262 80 137.953334 62.1356321 123.542622 80 113 80 133.214145 56.118678"></polygon>
                <path d="M13.5839073,108.96741 L13.7731266,108.96741 C16.2547119,105.055837 20.7371634,102 25.6018889,102 C31.4229389,102 35.6190044,104.958623 38.4790283,109.92164 C41.2457211,105.150492 46.5873304,102 52.2166041,102 C63.9481998,102 67,111.163673 67,121.277738 L67,148 L58.4160927,148 L58.4160927,122.71164 C58.4160927,116.982426 57.6541015,109.635115 50.1185714,109.635115 C40.9606137,109.635115 40.2932322,119.178689 40.2932322,126.051443 L40.2932322,148 L31.7067678,148 L31.7067678,124.332295 C31.7067678,118.510984 31.4229389,109.635115 23.5038561,109.635115 C14.3458985,109.635115 13.5839073,119.084033 13.5839073,126.051443 L13.5839073,148 L5,148 L5,103.33541 L13.5839073,103.33541 L13.5839073,108.96741 Z" id="Fill-15" fill="#F46F7C" mask="url(#mask-6)"></path>
                <path d="M36.1261851,58.4063947 C36.1261851,49.8174723 31.032167,42.551674 22.0459368,42.551674 C13.432167,42.551674 8.33814898,50.1969534 8.33814898,58.4063947 C8.33814898,66.7119711 13.2471783,74.4508559 22.0459368,74.4508559 C31.1240406,74.4508559 36.1261851,67.0889224 36.1261851,58.4063947 L36.1261851,58.4063947 Z M44,80.4909301 L35.6643341,80.4909301 L35.6643341,73.603348 L35.4781038,73.603348 C32.1433409,78.6023792 26.9549661,82 20.7485327,82 C7.50383747,82 0,70.7698891 0,58.1255786 C0,46.0454301 7.8738149,35 20.4704289,35 C26.8630926,35 32.0514673,38.3976208 35.4781038,43.6837927 L35.6643341,43.6837927 L35.6643341,36.3218592 L44,36.3218592 L44,80.4909301 Z" id="Fill-16" fill="#259CC2" mask="url(#mask-6)"></path>
                <path d="M196.716808,52.2969133 C194.385201,53.6671183 191.854099,58.7464602 191.804225,62.3765968 C194.140819,59.1854957 196.079668,56.2521174 196.716808,52.2969133 M219.72241,48.0839864 C221.958009,46.244959 224.203584,44.4162922 226.427961,42.5617237 C227.934154,41.3054867 229.39172,40.8819923 231.217106,42.0877209 C232.950226,43.2312851 233.591106,44.7245236 232.15349,46.2074014 C229.452816,48.9944345 226.542671,51.5716631 223.610084,54.0996783 C222.145037,55.3623908 220.377005,56.2430518 218.874553,57.4669116 C218.350877,57.8942912 217.955626,58.8306411 217.943157,59.5429404 C217.877074,63.3841766 217.176345,67.2772164 218.570322,71.0316815 C218.743634,71.4992089 218.956845,71.9499002 219.187512,72.4925428 C221.057785,70.9591565 222.827063,69.5721154 224.526517,68.0995984 C226.53519,66.3589978 228.489002,64.5471672 230.460269,62.7586483 C231.309373,61.9880699 232.357973,61.3418201 232.939004,60.3912242 C234.039971,58.5858691 234.958899,59.5533012 236.022461,60.2927974 C237.264322,61.1566223 237.22941,62.3247932 236.441402,63.3103565 C233.537492,66.9379029 230.567498,70.5110555 227.538903,74.0272241 C226.504019,75.2290674 225.298317,76.3117624 224.034012,77.2519976 C221.052797,79.4691912 217.754883,79.7165534 215.321035,76.3726316 C214.647736,75.4479376 213.82731,74.6333261 213.197652,73.6814352 C212.606645,72.7878232 212.17773,71.7789483 211.624129,70.72086 C209.090533,73.6736646 206.569405,76.4464518 204.240292,79.3837153 C202.570762,81.4895312 200.605728,83.0941474 198.269134,84.2597282 C195.17695,85.8034752 191.296757,84.8826663 188.899068,81.9648292 C188.012558,80.8873145 187.372925,79.5727984 186.411605,78.58594 C185.901644,78.0627238 184.922868,77.7428366 184.188474,77.7972304 C181.62246,77.9889036 178.752214,76.4218451 178.016574,73.9857813 C177.878174,73.5273195 178.637504,72.6647897 179.142478,72.1622949 C179.371898,71.9343591 179.992829,72.1467538 180.434213,72.1325078 C182.845618,72.0548024 184.790702,70.880156 184.426622,67.9778599 C184.037605,64.8722347 184.471509,61.932381 185.714617,59.0339702 C186.690899,56.7572024 187.239512,54.2887614 188.082382,51.9446489 C189.303047,48.5476285 195.644518,45.3824292 198.651917,46.5739118 C200.887516,47.4597531 201.754076,49.4736177 202.552059,51.5587122 C204.040796,55.4517519 202.479742,58.7788375 200.432416,61.7769702 C197.893833,65.4925827 195.01486,68.9608331 192.248103,72.5054937 C191.003748,74.0997492 191.522437,77.6016718 193.205682,78.6973177 C194.629583,79.624602 195.533549,78.4745623 196.259214,77.6690165 C199.251651,74.3522917 202.03711,70.8322377 205.053237,67.5414147 C207.266393,65.1260723 208.287562,62.0916771 209.55436,59.1880859 C211.674003,54.3353846 211.892201,49.0035001 212.811129,43.8594037 C213.662726,39.0895881 214.208846,34.2589034 214.900847,29.4580057 C215.258692,26.9727285 215.878376,26.6360052 218.170084,27.2926157 C223.011596,28.682247 221.835818,28.6951979 221.536575,33.1956347 C221.27723,37.0834941 220.602685,40.9441566 220.065293,44.8112946 C219.925646,45.8201695 219.616428,46.8044377 219.385761,47.8003617 C219.497977,47.8949033 219.610194,47.9894448 219.72241,48.0839864" id="Fill-17" fill="#FEDF5E" mask="url(#mask-6)"></path>
            </g>
        </g>
    </g>
</svg>

<svg width="262" height="149" viewBox="0 0 262 149" xmlns="http://www.w3.org/2000/svg" xmlns:xlink="http://www.w3.org/1999/xlink"><defs><path id="a" d="M.105 47H44.99V.023H.104V47z"/><path id="c" d="M.08 46.908h45.757V.023H.08z"/><path id="e" d="M0 149h262V0H0z"/></defs><g fill="none" fill-rule="evenodd"><g transform="translate(73 102)"><mask id="b" fill="#fff"><use xlink:href="#a"/></mask><path d="M36.957 23.418c0-8.585-5.197-15.847-14.363-15.847-8.787 0-13.983 7.643-13.983 15.848 0 8.302 5.008 16.037 13.984 16.037 9.26 0 14.363-7.36 14.363-16.037zm8.032 22.074h-8.504v-6.884h-.19C32.894 43.604 27.6 47 21.27 47 7.76 47 .105 35.776.105 23.137.105 11.063 8.137.023 20.987.023c6.52 0 11.813 3.396 15.31 8.68h.19v-7.36h8.502v44.15z" fill="#F46F7C" mask="url(#b)"/></g><path d="M136.347 109.35h.184c2.597-4.77 7.79-7.35 13.077-7.35 12.24 0 15.393 8.497 15.393 19.376V148h-8.347v-25.578c0-7.632-1.02-12.786-9.55-12.786-10.756 0-10.756 9.735-10.756 17.847V148H128v-44.663h8.347v6.013z" fill="#F46F7C"/><g transform="translate(171 102)"><mask id="d" fill="#fff"><use xlink:href="#c"/></mask><path d="M8.315 23.466c0 8.285 6.497 15.347 14.642 15.347 8.146 0 14.644-7.062 14.644-15.347 0-8.376-6.497-15.347-14.643-15.347-8.145 0-14.642 6.97-14.642 15.346m37.522 0c0 13.276-10.067 23.443-22.88 23.443C10.147 46.91.08 36.74.08 23.465.08 10.192 10.145.023 22.956.023c12.813 0 22.88 10.17 22.88 23.443" fill="#F46F7C" mask="url(#d)"/></g><path d="M233.347 109.35h.184c2.597-4.77 7.79-7.35 13.077-7.35 12.24 0 15.393 8.497 15.393 19.376V148h-8.347v-25.578c0-7.632-1.02-12.786-9.55-12.786-10.756 0-10.756 9.735-10.756 17.847V148H225v-44.663h8.347v6.013z" fill="#F46F7C"/><mask id="f" fill="#fff"><use xlink:href="#e"/></mask><path fill="#259CC2" mask="url(#f)" d="M56 83h8V0h-8M105.545 53.407C104.51 46.8 100.19 42.36 93.423 42.36c-6.575 0-11.463 4.72-12.496 11.047h24.618zM80.46 59.82c.092 7.553 5.165 14.63 13.245 14.63 6.484 0 9.96-3.302 13.156-8.59l7.14 4.06C109.867 77.568 102.162 82 93.61 82 80.177 82 72 71.808 72 58.787 72 45.194 79.236 35 93.423 35c14 0 20.577 10.384 20.577 23.5v1.32H80.46z"/><path fill="#259CC2" mask="url(#f)" d="M116.967 36h10.25l10.736 14.197L149.656 36h10.54l-16.634 20.12L163 80h-10.154l-14.893-17.864L123.543 80H113l20.214-23.88"/><path d="M13.584 108.967h.19c2.48-3.91 6.963-6.967 11.828-6.967 5.82 0 10.017 2.96 12.877 7.922C41.245 105.15 46.586 102 52.216 102 63.947 102 67 111.164 67 121.278V148h-8.584v-25.288c0-5.73-.762-13.077-8.297-13.077-9.16 0-9.827 9.544-9.827 16.416V148h-8.586v-23.668c0-5.82-.284-14.697-8.203-14.697-9.158 0-9.92 9.45-9.92 16.416V148H5v-44.665h8.584v5.632z" fill="#F46F7C" mask="url(#f)"/><path d="M36.126 58.406c0-8.59-5.094-15.854-14.08-15.854-8.614 0-13.708 7.645-13.708 15.854 0 8.306 4.91 16.045 13.708 16.045 9.078 0 14.08-7.36 14.08-16.044zM44 80.49h-8.336v-6.887h-.186c-3.335 5-8.523 8.397-14.73 8.397C7.505 82 0 70.77 0 58.126 0 46.046 7.874 35 20.47 35c6.393 0 11.58 3.398 15.008 8.684h.186v-7.362H44v44.17z" fill="#259CC2" mask="url(#f)"/><path d="M196.717 52.297c-2.332 1.37-4.863 6.45-4.913 10.08 2.337-3.192 4.276-6.125 4.913-10.08m23.005-4.213c2.236-1.84 4.482-3.668 6.706-5.522 1.506-1.257 2.964-1.68 4.79-.474 1.732 1.143 2.373 2.637.935 4.12-2.7 2.786-5.61 5.364-8.543 7.892-1.465 1.262-3.233 2.143-4.735 3.367-.524.427-.92 1.364-.932 2.076-.066 3.84-.767 7.734.627 11.49.174.466.387.917.618 1.46 1.87-1.534 3.64-2.92 5.34-4.393 2.007-1.74 3.96-3.553 5.932-5.34.85-.772 1.898-1.418 2.48-2.37 1.1-1.804 2.02-.837 3.082-.097 1.242.864 1.207 2.032.42 3.017-2.905 3.628-5.875 7.2-8.903 10.717-1.036 1.202-2.242 2.285-3.506 3.225-2.98 2.217-6.28 2.465-8.713-.88-.672-.924-1.493-1.74-2.122-2.69-.59-.894-1.02-1.903-1.574-2.96-2.533 2.952-5.055 5.724-7.384 8.662-1.67 2.106-3.634 3.71-5.97 4.876-3.093 1.543-6.973.623-9.37-2.295-.887-1.078-1.527-2.392-2.488-3.38-.51-.522-1.49-.842-2.224-.788-2.566.192-5.436-1.375-6.17-3.81-.14-.46.62-1.322 1.124-1.825.23-.228.85-.015 1.292-.03 2.412-.077 4.357-1.252 3.993-4.154-.39-3.106.045-6.046 1.288-8.944.976-2.277 1.525-4.745 2.367-7.09 1.22-3.396 7.563-6.562 10.57-5.37 2.236.886 3.102 2.9 3.9 4.985 1.49 3.892-.072 7.22-2.12 10.217-2.538 3.716-5.417 7.184-8.184 10.728-1.244 1.595-.726 5.097.958 6.192 1.424.928 2.328-.222 3.053-1.028 2.992-3.318 5.777-6.838 8.793-10.13 2.213-2.414 3.235-5.448 4.5-8.352 2.12-4.853 2.34-10.184 3.258-15.33.853-4.768 1.4-9.6 2.09-14.4.36-2.485.978-2.822 3.27-2.165 4.842 1.39 3.666 1.402 3.367 5.903-.26 3.887-.934 7.748-1.472 11.615-.14 1.01-.45 1.994-.68 2.99l.337.284" fill="#FEDF5E" mask="url(#f)"/></g></svg>
